X: 11185
P: Copyright.
M: C
L: 1/16
K: G
!ff!|:\
f2e2b2a2 g2f2e2d2 | c2B2f2e2 d2c2B2A2 !ff!|\
!p!f2e2b2a2 a2g2g2f2 | (a8 g4) "^Fin."z4 H:|
|: !ff!\
b2bb b2bb b2B2^d2f2 | !p!b2a2a2^g2 a4 z4 !ff!|\
a2aa a2aa a2A2c2e2 | !p!abagfgfe dedcBcBA & a2g2f2e2 d2c2B2A2 !ff!|\
f2e2b2a2 a2g2g2f2 |[1 (a8 g4) z4 :|[2 (a8 g4) |]
"^Bugle solo."d4 |\
g8 "^>"g2f2"^>"f2e2 | d8 "^>"b2a2"^>"a2g2 |\
g2f2c'2b2 a2g2f2g2 | b8 a2d2e2f2 |\
g8 "^>"g2f2"^>"f2e2 | d8 "^>"b2a2"^>"a2g2 |\
f2e2e2d2 ^c2a2^g2a2 | d6 fe d2c2B2"^D.C."A2 :|



